X: 07047
T: GUNTRAM'S HORNPIPE
C: Bob McQuillen 00 Mar 83
B: Bob's Note Book 7 #47
%R: hornpipe, reel
Z: 2020 John Chambers <jc:trillian.mit.edu>
M: C
L: 1/8
K: D
FG \
| A2BA d2cB | AFBA G2AG | FAGF FEDE | F6 FG |
| ABAF AdcB | AFBA G2AG | FAGF FEDC | D6 :|
|: GF \
| E2A^G A2AB | cedc B2cB | AcBA ^GEFG | ABcB AGFG |
| A2FA d2cB | ABdf e2fe |dfed cABc | d2f2 d2 :|
%%begintext align
%% Here is a birthday tune for Guntram
%% Gudowius from Hannover, Germany.
%% He is one of our most enthusiastic
%% dancers, and the only one who ever goes
%% to a dance driving a covered wagon
%% with a four horse hitch - you have
%% to see it to believe it!
%%endtext

%%sep 1 1 500

%%sep 1 1 500

